X:300
T: When the Cock Crows It is Day (A)
T: T\'a an Coileach ag F\'ogairt an Lae
S: B.Breathnach: "Ceol Rince na hEireann" II/68(i)
Z: B.Black
L: 1/8
M: 6/8
R: jig
K: G
D|GAB AGE|c2E c2E|GAB AGE|A2D A2D|
GAB AGE|GBd gfe|dBG AFD|1 G3 G2 :|2 G3 G2||
B/d/|g2e dBG|B2B B2d|g2e dBG|A2A ABd|
g2e dBG|c2d efg|dBG AFD|G3 G2 :|

